X: 37217
T: Sister Jean
R: jig
M: 6/8
K: Ddorian
D2E F2G|ABA G2F|E2C C2G|E3 D2C|
D2E F2G|ABA A2G|A2d d2c|1 d3 D3:|2 d3 A3||
K:DMix
A2B c2d|efe e2c|A2B c2G|E3 C3|
A2B c2d|efe e2d|f2d d2^c|d3 A3|
A2B c2d|efe e2c|A2B c2G|E3 C2B|
A2A F2D|A2A F2D|A2d d2c|d3 D3||

